X: 643
T: Ku wugeng
L: 1/8
M: 2/4
K: A
e> f e A [I:setbarnb 1]| 
B3c | 
e> f e A | 
B4 | 
B2e2 | 
B2e2 | 
e f e A | 
B4 | 
B2e2 | 
B2e2 | 
B2e2 | 
B c B A | 
A3B | 
A2z2 | 
F2F A | 
B3c | 
A3c | 
B A G F | 
E3A | 
F E D B, | 
E4 |]

@@@ Tune index: 9517
